assets/svgs/objects/light-video/LightVideo13.svg

<svg id="emoji" viewBox="0 0 72 72" xmlns="http://www.w3.org/2000/svg">
  <g id="color">
    <ellipse cx="43.9713" cy="25.4757" rx="11.1657" ry="11.1656" transform="matrix(0.5379 -0.843 0.843 0.5379 -1.1578 48.8391)" fill="#FFFFFF" stroke="none"/>
    <path fill="#92D3F5" stroke="none" d="M53.4402,31.8458c1.461-2.289,2.284-6.5149,1.6981-9.1673c-0.4014-1.8161-2.6553-3.8396-3.8988-5.1585 c0.6487,2.3544,1.0384,7.3509-2.1852,11.9716c-2.7358,3.9212-6.6908,5.6353-8.9477,6.0576 C44.3554,36.8323,50.9377,35.7667,53.4402,31.8458z"/>
    <path fill="#D0CFCE" stroke="none" d="M51.7774,13.2414c-3.2684-2.0837-7.1512-2.7717-10.9373-1.9372c-3.785,0.8366-7.0182,3.097-9.1041,6.3645 c-4.3036,6.746-2.3176,15.7369,4.4283,20.0415c6.745,4.3047,15.7348,2.3197,20.0415-4.4273 c2.0849-3.2675,2.7728-7.1524,1.9362-10.9374C57.3054,18.5604,55.046,15.3273,51.7774,13.2414z M53.6137,31.629 c-2.1788,3.4147-5.8819,5.2814-9.6611,5.2814c-2.1045,0.0009-4.2319-0.5785-6.1343-1.7924 c-5.3172-3.3926-6.8818-10.4791-3.4892-15.7954c1.6436-2.5754,4.1915-4.3576,7.1747-5.0159 c2.9841-0.6584,6.0444-0.1176,8.6208,1.5269c2.5755,1.6426,4.3567,4.1905,5.016,7.1747 C55.7999,25.9914,55.2572,29.0526,53.6137,31.629z"/>
    <path fill="#3F3F3F" stroke="none" d="M31.4429,40.2651l-6.918,10.335l-3.7106,5.8155c-0.4778,0.75,0.3797,3.2105,1.1294,3.6888 c0.3613,0.2305,2.5325,0.011,2.5325,0.011L36,42.9231L31.4429,40.2651z"/>
  </g>
  <g id="hair"/>
  <g id="skin"/>
  <g id="skin-shadow"/>
  <g id="line">
    <ellipse cx="43.9712" cy="25.4757" rx="14.6372" ry="14.6372" transform="matrix(0.5379 -0.843 0.843 0.5379 -1.1578 48.8391)" fill="none" stroke="#000000" stroke-linecap="round" stroke-linejoin="round" stroke-miterlimit="10" stroke-width="2"/>
    <ellipse cx="43.9713" cy="25.4757" rx="11.1657" ry="11.1656" transform="matrix(0.5379 -0.843 0.843 0.5379 -1.1578 48.8391)" fill="none" stroke="#000000" stroke-linecap="round" stroke-linejoin="round" stroke-miterlimit="10" stroke-width="2"/>
    <path fill="none" stroke="#000000" stroke-linecap="round" stroke-linejoin="round" stroke-miterlimit="10" stroke-width="2" d="M31.3102,39.9657l4.4057,2.811L25.22,59.2267c-0.7499,1.1753-2.344,1.4986-3.5606,0.7224l0,0 c-1.2166-0.7763-1.595-2.3582-0.8451-3.5335L31.3102,39.9657z"/>
  </g>
</svg>

<svg xmlns="http://www.w3.org/2000/svg" viewBox="0 0 72 72"><circle cx="43.971" cy="25.476" r="11.166" fill="#FFF" transform="rotate(-57.459 43.97 25.476)"/><path fill="#92D3F5" d="M53.44 31.846c1.461-2.29 2.284-6.515 1.698-9.167-.401-1.817-2.655-3.84-3.899-5.159.65 2.354 1.039 7.35-2.185 11.972-2.736 3.92-6.69 5.635-8.947 6.057 4.248 1.283 10.83.218 13.333-3.703z"/><path fill="#D0CFCE" d="M51.777 13.241a14.432 14.432 0 00-10.937-1.937 14.424 14.424 0 00-9.104 6.365c-4.304 6.746-2.318 15.737 4.428 20.041 6.745 4.305 15.735 2.32 20.042-4.427a14.417 14.417 0 001.936-10.938 14.42 14.42 0 00-6.365-9.104zm1.837 18.388c-2.18 3.415-5.882 5.281-9.661 5.281a11.36 11.36 0 01-6.135-1.792c-5.317-3.393-6.881-10.48-3.489-15.795a11.361 11.361 0 017.175-5.016 11.363 11.363 0 018.62 1.527 11.36 11.36 0 015.017 7.174c.659 2.983.116 6.045-1.527 8.621z"/><path fill="#3F3F3F" d="M31.443 40.265L24.525 50.6l-3.71 5.816c-.478.75.379 3.21 1.129 3.688.361.23 2.532.011 2.532.011L36 42.923l-4.557-2.658z"/><g fill="none" stroke="#000" stroke-linecap="round" stroke-linejoin="round" stroke-miterlimit="10" stroke-width="2"><circle cx="43.971" cy="25.476" r="14.637" transform="rotate(-57.459 43.97 25.476)"/><circle cx="43.971" cy="25.476" r="11.166" transform="rotate(-57.459 43.97 25.476)"/><path d="M31.31 39.966l4.406 2.81-10.496 16.45c-.75 1.176-2.344 1.5-3.56.723h0c-1.217-.776-1.596-2.358-.846-3.533l10.496-16.45z"/></g></svg>
